icons/behance/behance-plain.svg

<svg xmlns="http://www.w3.org/2000/svg" viewBox="0 0 128 128"><g fill="#1d1d1b"><path d="M48.53 48.26c0-7.16-4.87-7.16-4.87-7.16h-20v15.35h18.76c3.24 0 6.11-1.04 6.11-8.19zM43.66 67.06h-20v18.38h19.1c2.87-.08 8.18-1 8.18-8.94-.03-9.5-7.28-9.44-7.28-9.44zM94.93 56.45c-10.63 0-12.11 10.6-12.11 10.6h22.6s.14-10.6-10.49-10.6z"/><path d="M111.25 2.16h-94.5A14.59 14.59 0 002.16 16.75v94.49a14.59 14.59 0 0014.59 14.59h94.49a14.59 14.59 0 0014.59-14.59V16.75a14.59 14.59 0 00-14.58-14.59zM79.86 32.92h28.38v8.48H79.86zM65.51 77.36c0 21-21.85 20.31-21.85 20.31H7.86v-68.8h35.8c10.88 0 19.47 6 19.47 18.32s-10.5 13.09-10.5 13.09c13.84 0 12.88 17.08 12.88 17.08zm53.09-1.12H83c0 12.78 12.11 12 12.11 12 11.43 0 11-7.4 11-7.4h12.09c0 19.64-23.54 18.29-23.54 18.29-28.25 0-26.43-26.3-26.43-26.3s0-26.43 26.43-26.43c27.85-.02 23.95 29.84 23.95 29.84z"/></g></svg>

<svg id="Behance" xmlns="http://www.w3.org/2000/svg" viewBox="0 0 128 128"><g id="plain"><path fill="#1d1d1b" d="M48.53,48.26c0-7.16-4.87-7.16-4.87-7.16h-20V56.45H42.42C45.66,56.45,48.53,55.41,48.53,48.26Z"/><path fill="#1d1d1b" d="M43.66,67.06h-20V85.44h19.1c2.87-.08,8.18-1,8.18-8.94C50.91,67,43.66,67.06,43.66,67.06Z"/><path fill="#1d1d1b" d="M94.93,56.45c-10.63,0-12.11,10.6-12.11,10.6h22.6S105.56,56.45,94.93,56.45Z"/><path fill="#1d1d1b" d="M111.25,2.16H16.75A14.59,14.59,0,0,0,2.16,16.75v94.49a14.59,14.59,0,0,0,14.59,14.59h94.49a14.59,14.59,0,0,0,14.59-14.59V16.75A14.59,14.59,0,0,0,111.25,2.16ZM79.86,32.92h28.38V41.4H79.86ZM65.51,77.36c0,21-21.85,20.31-21.85,20.31H7.86V28.87h35.8c10.88,0,19.47,6,19.47,18.32s-10.5,13.09-10.5,13.09C66.47,60.28,65.51,77.36,65.51,77.36Zm53.09-1.12H83c0,12.78,12.11,12,12.11,12,11.43,0,11-7.4,11-7.4H118.2c0,19.64-23.54,18.29-23.54,18.29-28.25,0-26.43-26.3-26.43-26.3s0-26.43,26.43-26.43C122.51,46.38,118.61,76.24,118.61,76.24Z"/></g></svg>
